public/images/mobile/project/like.svg

<svg width="16" height="16" viewBox="0 0 16 16" fill="none" xmlns="http://www.w3.org/2000/svg">
<path fill-rule="evenodd" clip-rule="evenodd" d="M0.916992 6.40049C0.916992 4.11346 2.51817 1.58398 5.18551 1.58398C6.04453 1.58398 6.8038 1.90876 7.38133 2.29619C7.60804 2.44829 7.81653 2.61656 8.00078 2.79034C8.18375 2.61669 8.39094 2.44869 8.61643 2.29688C9.1935 1.90837 9.95303 1.58398 10.8151 1.58398C13.4825 1.58398 15.0837 4.11344 15.0837 6.40038C15.0837 7.94043 14.3698 9.01374 13.9242 9.68375L13.9075 9.70898C12.7674 11.422 10.496 13.1366 9.31058 13.9701L9.27647 13.9941C9.27105 13.9979 9.26776 14.0002 9.26607 14.0015L9.26464 14.0025L9.25756 14.0077L9.23499 14.0237C8.87103 14.2774 8.44244 14.4173 7.99682 14.4173C7.53833 14.4173 7.0973 14.2752 6.72892 14.0024L6.68267 13.9699C5.49747 13.1384 3.22585 11.426 2.09449 9.71086L2.09363 9.70956L2.09527 9.71203L2.09449 9.71086C2.08925 9.70299 2.08398 9.69506 2.07866 9.68707C1.63119 9.01441 0.916992 7.94081 0.916992 6.40049Z" fill="#FF4242"/>
</svg>

<svg xmlns="http://www.w3.org/2000/svg" width="16" height="16" fill="none"><path fill="#FF4242" fill-rule="evenodd" d="M.917 6.4c0-2.287 1.601-4.816 4.269-4.816.859 0 1.618.325 2.195.712.227.152.436.32.62.494.183-.173.39-.341.615-.493.578-.389 1.337-.713 2.2-.713 2.666 0 4.268 2.53 4.268 4.816 0 1.54-.714 2.614-1.16 3.284l-.016.025c-1.14 1.713-3.412 3.428-4.597 4.261l-.035.024-.01.008h-.001l-.007.006-.023.016a2.161 2.161 0 0 1-1.238.393c-.459 0-.9-.142-1.268-.415l-.046-.032c-1.186-.832-3.457-2.544-4.589-4.26l.001.002v-.001l-.016-.024C1.63 9.014.917 7.941.917 6.4Z" clip-rule="evenodd"/></svg>
